X: 5979
T: Can Anyone Tell Me Where Nancy's Gone?
R: slide
M: 12/8
K: Gmajor
|:B|ded cBA d2B G2B|ABA F2A e2d B2c|
ded cBA d2B G2B|ABA F2A G3 G2:|
|:B|d3 d2B d2B GBc|e3 e2d e2c ABc|
d3 d2B d2B G2B|ABA F2A G3 G2:|

